icon-themes/sifr_svg/cmd/lc_radiobutton.svg

<svg viewBox="0 0 24 24" xmlns="http://www.w3.org/2000/svg"><path d="m12 4.015625c-4.41827 0-8 3.5780575-8 7.992187 0 4.414131 3.58173 7.992188 8 7.992188s8-3.578057 8-7.992188c0-4.4141295-3.58173-7.992187-8-7.992187zm-.009766 2.0214844c3.30538 0 5.984375 2.6781387 5.984375 5.9804686 0 3.30238-2.678995 5.978516-5.984375 5.978516-3.3053796 0-5.9843746-2.676136-5.9843746-5.978516-.00007-3.3023299 2.678995-5.9804686 5.9843746-5.9804686zm.009766 2.9628906a2.9999993 2.9999688 0 0 0 -3 3 2.9999993 2.9999688 0 0 0 3 3 2.9999993 2.9999688 0 0 0 3-3 2.9999993 2.9999688 0 0 0 -3-3z" fill="#555753"/></svg>

<svg xmlns="http://www.w3.org/2000/svg" viewBox="0 0 24 24">
 <path
     style="fill:#555753"
     d="M 12 4.015625 C 7.58173 4.015625 4 7.5936825 4 12.007812 C 4 16.421943 7.58173 20 12 20 C 16.41827 20 20 16.421943 20 12.007812 C 20 7.5936825 16.41827 4.015625 12 4.015625 z M 11.990234 6.0371094 C 15.295614 6.0371094 17.974609 8.7152481 17.974609 12.017578 C 17.974609 15.319958 15.295614 17.996094 11.990234 17.996094 C 8.6848544 17.996094 6.0058594 15.319958 6.0058594 12.017578 C 6.0057894 8.7152481 8.6848544 6.0371094 11.990234 6.0371094 z M 12 9 A 2.9999993 2.9999688 0 0 0 9 12 A 2.9999993 2.9999688 0 0 0 12 15 A 2.9999993 2.9999688 0 0 0 15 12 A 2.9999993 2.9999688 0 0 0 12 9 z "
     />
 </svg>
